svg/fluentui-system-icons/ic_fluent_bed_24_regular.svg

<svg width="24" height="24" viewBox="0 0 24 24" fill="none" xmlns="http://www.w3.org/2000/svg">
<path d="M6.75 4H17.25C18.7125 4 19.9084 5.1417 19.995 6.58248L20 6.75L20.0006 10.1037C21.0968 10.414 21.9147 11.3872 21.9937 12.5628L22 12.75V20.25C22 20.6642 21.6642 21 21.25 21C20.8703 21 20.5565 20.7178 20.5068 20.3518L20.5 20.25V18H3.5V20.25C3.5 20.6297 3.21785 20.9435 2.85177 20.9932L2.75 21C2.3703 21 2.05651 20.7178 2.00685 20.3518L2 20.25V12.75C2 11.4911 2.84596 10.4297 4.00044 10.1034L4 6.75C4 5.28747 5.1417 4.0916 6.58248 4.00502L6.75 4ZM19.25 11.5H4.75C4.10279 11.5 3.57047 11.9919 3.50645 12.6222L3.5 12.75V16.5H20.5V12.75C20.5 12.1028 20.0081 11.5705 19.3778 11.5065L19.25 11.5ZM17.25 5.5H6.75C6.10279 5.5 5.57047 5.99187 5.50645 6.62219L5.5 6.75V10H7C7 9.44772 7.44772 9 8 9H10C10.5128 9 10.9355 9.38604 10.9933 9.88338L11 10H13C13 9.44772 13.4477 9 14 9H16C16.5128 9 16.9355 9.38604 16.9933 9.88338L17 10H18.5V6.75C18.5 6.10279 18.0081 5.57047 17.3778 5.50645L17.25 5.5Z" fill="#212121"/>
</svg>

<svg xmlns="http://www.w3.org/2000/svg" width="24" height="24"><path d="M6.75 4h10.5a2.75 2.75 0 0 1 2.745 2.582L20 6.75v3.354a2.752 2.752 0 0 1 1.994 2.459l.006.187v7.5a.75.75 0 0 1-1.493.102l-.007-.102V18h-17v2.25a.75.75 0 0 1-.648.743L2.75 21a.75.75 0 0 1-.743-.648L2 20.25v-7.5c0-1.259.846-2.32 2-2.647V6.75a2.75 2.75 0 0 1 2.582-2.745L6.75 4Zm12.5 7.5H4.75a1.25 1.25 0 0 0-1.244 1.122l-.006.128v3.75h17v-3.75a1.25 1.25 0 0 0-1.122-1.243l-.128-.007Zm-2-6H6.75a1.25 1.25 0 0 0-1.244 1.122L5.5 6.75V10H7a1 1 0 0 1 1-1h2a1 1 0 0 1 .993.883L11 10h2a1 1 0 0 1 1-1h2a1 1 0 0 1 .993.883L17 10h1.5V6.75a1.25 1.25 0 0 0-1.122-1.244L17.25 5.5Z"/></svg>
